src/assets/icons/key.svg

<svg width="14" height="14" viewBox="0 0 14 14" fill="none" xmlns="http://www.w3.org/2000/svg">
<g id="key">
<g clip-path="url(#clip0_156_4635)">
<path id="Union" fill-rule="evenodd" clip-rule="evenodd" d="M5.8 4.6C5.8 2.72223 7.32223 1.2 9.2 1.2C11.0778 1.2 12.6 2.72223 12.6 4.6C12.6 6.47777 11.0778 8 9.2 8C7.32223 8 5.8 6.47777 5.8 4.6ZM9.2 0C6.65949 0 4.6 2.05949 4.6 4.6C4.6 5.654 4.95448 6.6252 5.55073 7.40089L5.54373 7.40777L3.17997 9.77154C3.17855 9.77293 3.17714 9.77433 3.17573 9.77574C3.17433 9.77714 3.17293 9.77855 3.17154 9.77997L1.58027 11.3712L1.57573 11.3757L1.57124 11.3803L1.17573 11.7758L0.375733 12.5758C0.141418 12.8101 0.141418 13.19 0.375733 13.4243C0.610047 13.6586 0.989946 13.6586 1.22426 13.4243L2.00002 12.6486L3.17573 13.8243C3.41005 14.0586 3.78995 14.0586 4.02426 13.8243C4.25858 13.5899 4.25858 13.2101 4.02426 12.9757L2.84855 11.8L3.60002 11.0485L4.77573 12.2243C5.01005 12.4586 5.38995 12.4586 5.62426 12.2243C5.85858 11.9899 5.85858 11.6101 5.62426 11.3757L4.44854 10.2L6.39226 8.25629L6.39915 8.2493C7.17483 8.84553 8.14602 9.2 9.2 9.2C11.7405 9.2 13.8 7.14051 13.8 4.6C13.8 2.05949 11.7405 0 9.2 0Z" fill="black"/>
</g>
</g>
<defs>
<clipPath id="clip0_156_4635">
<rect width="14" height="14" fill="white"/>
</clipPath>
</defs>
</svg>

<svg xmlns="http://www.w3.org/2000/svg" fill="none" viewBox="0 0 14 14"><g clip-path="url(#a)"><path fill="#000" fill-rule="evenodd" d="M5.8 4.6a3.4 3.4 0 1 1 6.8 0 3.4 3.4 0 0 1-6.8 0M9.2 0a4.6 4.6 0 0 0-3.65 7.4l-.006.008L3.18 9.772l-.008.008-1.592 1.591-.004.005-.005.004-.395.396-.8.8a.6.6 0 1 0 .848.848L2 12.65l1.176 1.175a.6.6 0 0 0 .848-.848L2.85 11.8l.751-.751 1.176 1.175a.6.6 0 0 0 .848-.848L4.45 10.2l1.943-1.944.007-.007A4.6 4.6 0 1 0 9.2 0" clip-rule="evenodd"/></g><defs><clipPath id="a"><path fill="#fff" d="M0 0h14v14H0z"/></clipPath></defs></svg>
